X: 1
T: Belgarth Waltz v.1
C: Brian \'O Eadra
D: Anam "Riptide" 1998
%D:1998
R: waltz
Z: 2020 John Chambers <jc:trillian.mit.edu>
S: https://thesession.org/tunes/13235
S: https://www.facebook.com/groups/Fiddletuneoftheday/ 2020-08-04
S: https://www.facebook.com/groups/Fiddletuneoftheday/photos/
M: 3/4
L: 1/8
K: G
D GA |\
"G"B3 c B2 | "D"A3 G F2 | "C"E G3 E2 | "G"D3 D GA |\
   B3 A G2 | "Am"d2 c2 B2 | "D"A6- | A4 ||
GA |\
 "G"B3 c B2 | "D"A2 G2 F2 | "C"E G3 E2 | "G"D4 D2 |\
"Am"E G3 c2 | "D"A2 G2 F2 | "G"G4- "C"G2 | "G"G3 |]
G Bc |\
"G"d4   d2 | "C"e4 e2 | "G"B d3 BA | G3 G Bc |\
   d3 B d2 | "Am"e3 d cB | "D"A6- | A4 ||
GF |\
"C"E G3 GE | "Em"D G3 GD | "Am"C G3- GC | "G"B,3 B, GA |\
   B3 c B2 | "D"A G3 F2 | "G"G4- | "C"G2 | "G"G3 |]
